img/Vector11.svg

<svg width="15" height="20" viewBox="0 0 15 20" fill="none" xmlns="http://www.w3.org/2000/svg">
<path d="M7.5 0.775391C7.24609 0.775391 7.03776 0.855143 6.875 1.01465C6.71224 1.17415 6.63086 1.38086 6.63086 1.63477V14.4961L6.72852 17.4063L7.27539 17.2109L3.7793 13.3731L1.55274 11.1856C1.47461 11.1075 1.38184 11.0489 1.27442 11.0098C1.16699 10.9707 1.05468 10.9512 0.9375 10.9512C0.696615 10.9512 0.49642 11.0326 0.336914 11.1953C0.177409 11.3581 0.0976562 11.5599 0.0976562 11.8008C0.0976562 12.0352 0.188802 12.2468 0.371094 12.4356L6.84571 18.9297C6.94336 19.0274 7.04753 19.1006 7.15821 19.1494C7.26888 19.1983 7.38281 19.2227 7.5 19.2227C7.6237 19.2227 7.74089 19.1983 7.85157 19.1494C7.96224 19.1006 8.06315 19.0274 8.1543 18.9297L14.6387 12.4356C14.8145 12.2468 14.9024 12.0352 14.9024 11.8008C14.9024 11.5599 14.8226 11.3581 14.6631 11.1953C14.5036 11.0326 14.3034 10.9512 14.0625 10.9512C13.9453 10.9512 13.833 10.9707 13.7256 11.0098C13.6182 11.0489 13.5254 11.1075 13.4473 11.1856L11.2207 13.3731L7.71485 17.2109L8.27149 17.4063L8.36914 14.4961V1.63477C8.36914 1.38086 8.28776 1.17415 8.125 1.01465C7.96224 0.855143 7.7539 0.775391 7.5 0.775391Z" fill="white"/>
</svg>

<svg width="15" height="20" fill="none" xmlns="http://www.w3.org/2000/svg"><path d="M7.5.775a.856.856 0 0 0-.625.24.83.83 0 0 0-.244.62v12.861l.098 2.91.546-.195-3.496-3.838-2.226-2.187a.752.752 0 0 0-.279-.176.977.977 0 0 0-.337-.059.806.806 0 0 0-.6.244.831.831 0 0 0-.24.606c0 .234.092.446.274.635l6.475 6.494c.097.097.202.17.312.22a.86.86 0 0 0 .693 0 .923.923 0 0 0 .303-.22l6.485-6.494a.909.909 0 0 0 .263-.635c0-.241-.08-.443-.239-.606a.806.806 0 0 0-.6-.244c-.118 0-.23.02-.337.059a.752.752 0 0 0-.279.176l-2.226 2.187-3.506 3.838.556.195.098-2.91V1.635a.83.83 0 0 0-.244-.62.856.856 0 0 0-.625-.24Z" fill="#fff"/></svg>
